images/logo.svg

<svg width="168" height="290" viewBox="0 0 168 290" fill="none" xmlns="http://www.w3.org/2000/svg">
<path fill-rule="evenodd" clip-rule="evenodd" d="M0 0H168V191H0V0Z" fill="#4AF6CD"/>
<path d="M60.22 155.36C60.22 152.2 60.68 149.42 61.6 147.02C62.52 144.58 63.9 142.4 65.74 140.48L71.62 145.46C69.34 148.34 68.2 151.36 68.2 154.52C68.2 156.16 68.52 157.42 69.16 158.3C69.76 159.14 70.62 159.56 71.74 159.56C72.54 159.56 73.2 159.34 73.72 158.9C74.24 158.46 74.74 157.72 75.22 156.68C75.7 155.64 76.3 154 77.02 151.76C78.38 147.48 80.1 144.36 82.18 142.4C84.22 140.4 87.06 139.4 90.7 139.4C93.34 139.4 95.68 140.08 97.72 141.44C99.72 142.8 101.28 144.78 102.4 147.38C103.52 149.94 104.08 152.96 104.08 156.44C104.08 163.08 102.06 168.5 98.02 172.7L91.96 167.24C94.68 163.92 96.04 160.46 96.04 156.86C96.04 154.98 95.64 153.52 94.84 152.48C94 151.44 92.9 150.92 91.54 150.92C90.58 150.92 89.8 151.12 89.2 151.52C88.56 151.92 88 152.64 87.52 153.68C87 154.68 86.44 156.16 85.84 158.12C84.36 162.84 82.58 166.16 80.5 168.08C78.42 170 75.8 170.96 72.64 170.96C70.16 170.96 67.98 170.3 66.1 168.98C64.22 167.62 62.78 165.76 61.78 163.4C60.74 161 60.22 158.32 60.22 155.36ZM89.02 101.955C91.9 101.955 94.48 102.595 96.76 103.875C99.04 105.115 100.84 106.995 102.16 109.515C103.44 112.035 104.08 115.115 104.08 118.755C104.08 124.275 102.74 128.455 100.06 131.295C97.34 134.135 93.66 135.555 89.02 135.555H61.3V124.455H88.66C91.18 124.455 93.04 124.015 94.24 123.135C95.4 122.215 95.98 120.755 95.98 118.755C95.98 116.755 95.38 115.315 94.18 114.435C92.98 113.555 91.14 113.115 88.66 113.115H61.3V101.955H89.02ZM87.64 81.9477V85.0077H103V96.1077H61.3V81.6477C61.3 75.7677 62.36 71.3877 64.48 68.5077C66.6 65.5877 69.86 64.1277 74.26 64.1277C76.9 64.1277 79.1 64.7477 80.86 65.9877C82.62 67.1877 84.2 69.1277 85.6 71.8077L103 61.4277V73.7877L87.64 81.9477ZM80.08 85.0077V81.2877C80.08 77.4477 78.14 75.5277 74.26 75.5277C72.46 75.5277 71.14 76.0677 70.3 77.1477C69.46 78.1877 69.04 79.7677 69.04 81.8877V85.0077H80.08ZM103 58.9006H61.3V33.2806L69.16 34.4206V47.8006H79.18V36.0406H87.04V47.8006H103V58.9006Z" fill="white"/>
<path d="M60.22 267.92C60.22 262.36 61.98 257.58 65.5 253.58L71.2 259.04C70.12 260.56 69.34 261.94 68.86 263.18C68.34 264.38 68.08 265.76 68.08 267.32C68.08 270.32 69.24 272.68 71.56 274.4C73.88 276.08 77.42 276.92 82.18 276.92C85.66 276.92 88.42 276.64 90.46 276.08C92.46 275.52 93.9 274.68 94.78 273.56C95.66 272.4 96.1 270.92 96.1 269.12C96.1 267.32 95.72 265.68 94.96 264.2H86.38V268.94L78.76 270.02V253.46H99.52C100.96 255.62 102.08 258.06 102.88 260.78C103.68 263.5 104.08 266.18 104.08 268.82C104.08 281.86 96.76 288.38 82.12 288.38C77.56 288.38 73.64 287.5 70.36 285.74C67.04 283.94 64.52 281.5 62.8 278.42C61.08 275.34 60.22 271.84 60.22 267.92ZM60.22 230.335C60.22 224.295 62.14 219.595 65.98 216.235C69.82 212.875 75.2 211.195 82.12 211.195C86.64 211.195 90.56 211.955 93.88 213.475C97.16 214.955 99.68 217.135 101.44 220.015C103.2 222.895 104.08 226.335 104.08 230.335C104.08 236.375 102.16 241.075 98.32 244.435C94.48 247.755 89.08 249.415 82.12 249.415C77.6 249.415 73.7 248.675 70.42 247.195C67.14 245.675 64.62 243.495 62.86 240.655C61.1 237.775 60.22 234.335 60.22 230.335ZM68.2 230.335C68.2 232.935 69.28 234.855 71.44 236.095C73.6 237.295 77.16 237.895 82.12 237.895C87.08 237.895 90.66 237.275 92.86 236.035C95.02 234.795 96.1 232.895 96.1 230.335C96.1 227.695 95.02 225.775 92.86 224.575C90.7 223.375 87.12 222.775 82.12 222.775C77.16 222.775 73.6 223.375 71.44 224.575C69.28 225.775 68.2 227.695 68.2 230.335Z" fill="white"/>
<rect x="83" y="201" width="20" height="1" transform="rotate(-90 83 201)" fill="white"/>
</svg>

<svg width="168" height="290" fill="none" xmlns="http://www.w3.org/2000/svg"><path fill-rule="evenodd" clip-rule="evenodd" d="M0 0h168v191H0V0z" fill="#4AF6CD"/><path d="M60.22 155.36c0-3.16.46-5.94 1.38-8.34.92-2.44 2.3-4.62 4.14-6.54l5.88 4.98c-2.28 2.88-3.42 5.9-3.42 9.06 0 1.64.32 2.9.96 3.78.6.84 1.46 1.26 2.58 1.26.8 0 1.46-.22 1.98-.66.52-.44 1.02-1.18 1.5-2.22.48-1.04 1.08-2.68 1.8-4.92 1.36-4.28 3.08-7.4 5.16-9.36 2.04-2 4.88-3 8.52-3 2.64 0 4.98.68 7.02 2.04 2 1.36 3.56 3.34 4.68 5.94 1.12 2.56 1.68 5.58 1.68 9.06 0 6.64-2.02 12.06-6.06 16.26l-6.06-5.46c2.72-3.32 4.08-6.78 4.08-10.38 0-1.88-.4-3.34-1.2-4.38-.84-1.04-1.94-1.56-3.3-1.56-.96 0-1.74.2-2.34.6-.64.4-1.2 1.12-1.68 2.16-.52 1-1.08 2.48-1.68 4.44-1.48 4.72-3.26 8.04-5.34 9.96-2.08 1.92-4.7 2.88-7.86 2.88-2.48 0-4.66-.66-6.54-1.98-1.88-1.36-3.32-3.22-4.32-5.58-1.04-2.4-1.56-5.08-1.56-8.04zm28.8-53.405c2.88 0 5.46.64 7.74 1.92 2.28 1.24 4.08 3.12 5.4 5.64 1.28 2.52 1.92 5.6 1.92 9.24 0 5.52-1.34 9.7-4.02 12.54-2.72 2.84-6.4 4.26-11.04 4.26H61.3v-11.1h27.36c2.52 0 4.38-.44 5.58-1.32 1.16-.92 1.74-2.38 1.74-4.38s-.6-3.44-1.8-4.32c-1.2-.88-3.04-1.32-5.52-1.32H61.3v-11.16h27.72zm-1.38-20.007v3.06H103v11.1H61.3v-14.46c0-5.88 1.06-10.26 3.18-13.14 2.12-2.92 5.38-4.38 9.78-4.38 2.64 0 4.84.62 6.6 1.86 1.76 1.2 3.34 3.14 4.74 5.82l17.4-10.38v12.36l-15.36 8.16zm-7.56 3.06v-3.72c0-3.84-1.94-5.76-5.82-5.76-1.8 0-3.12.54-3.96 1.62-.84 1.04-1.26 2.62-1.26 4.74v3.12h11.04zM103 58.9H61.3V33.28l7.86 1.14V47.8h10.02V36.04h7.86V47.8H103v11.1zM60.22 267.92c0-5.56 1.76-10.34 5.28-14.34l5.7 5.46c-1.08 1.52-1.86 2.9-2.34 4.14-.52 1.2-.78 2.58-.78 4.14 0 3 1.16 5.36 3.48 7.08 2.32 1.68 5.86 2.52 10.62 2.52 3.48 0 6.24-.28 8.28-.84 2-.56 3.44-1.4 4.32-2.52.88-1.16 1.32-2.64 1.32-4.44 0-1.8-.38-3.44-1.14-4.92h-8.58v4.74l-7.62 1.08v-16.56h20.76c1.44 2.16 2.56 4.6 3.36 7.32.8 2.72 1.2 5.4 1.2 8.04 0 13.04-7.32 19.56-21.96 19.56-4.56 0-8.48-.88-11.76-2.64-3.32-1.8-5.84-4.24-7.56-7.32-1.72-3.08-2.58-6.58-2.58-10.5zm0-37.585c0-6.04 1.92-10.74 5.76-14.1 3.84-3.36 9.22-5.04 16.14-5.04 4.52 0 8.44.76 11.76 2.28 3.28 1.48 5.8 3.66 7.56 6.54 1.76 2.88 2.64 6.32 2.64 10.32 0 6.04-1.92 10.74-5.76 14.1-3.84 3.32-9.24 4.98-16.2 4.98-4.52 0-8.42-.74-11.7-2.22-3.28-1.52-5.8-3.7-7.56-6.54-1.76-2.88-2.64-6.32-2.64-10.32zm7.98 0c0 2.6 1.08 4.52 3.24 5.76 2.16 1.2 5.72 1.8 10.68 1.8s8.54-.62 10.74-1.86c2.16-1.24 3.24-3.14 3.24-5.7 0-2.64-1.08-4.56-3.24-5.76-2.16-1.2-5.74-1.8-10.74-1.8-4.96 0-8.52.6-10.68 1.8-2.16 1.2-3.24 3.12-3.24 5.76zM83 201v-20h1v20z" fill="#fff"/></svg>
